X:4445
T:Drunk at Night and.. BF13.056
M:3/4
L:1/8
Q:90
S:J.Lishman()MS,c1825,Lakes,Browne Coll.
R:Air
O:England
A:Lakes
N:...& Dry in the Morning. See another version of the same tune in Gow's
N:Repository, and also BF11.69., where it is in 3sharps.This seems to be
N:music from  Planet Bagpipe, so I have not attempted to edit it..CGP
Z:vmp.Chris Partington
K:D
"Exactly as written"AB|c4|c>B AB AB/c/|D2ABA/B/c/|c2B2AB|cB AB ABc|DCB,C
 DF|AB/c/|A4::
G,2A,2B,2|CECEC|B,2ECEC|G,2ABA/B/|c2B2G,A,/B,/|C2ECEC|B,2DB,DB,|
G,2AAB|A3G,A,B,|C2ECEC|B,2DB,DB,|G,2ABAB|c2B2AB|cB AB (AB/c/)|D2C2B,2C2|
DF|E2AA|A4
